austria/municipalities/70402.svg

<?xml version="1.0" encoding="UTF-8"?>
<!DOCTYPE svg PUBLIC "-//W3C//DTD SVG 1.1//EN" "http://www.w3.org/Graphics/SVG/1.1/DTD/svg11.dtd">
<svg xmlns="http://www.w3.org/2000/svg" version="1.1" width="166px" height="192px" style="shape-rendering:geometricPrecision; text-rendering:geometricPrecision; image-rendering:optimizeQuality; fill-rule:evenodd; clip-rule:evenodd" xmlns:xlink="http://www.w3.org/1999/xlink">
<g><path style="opacity:1" fill="#111010" d="M -0.5,-0.5 C 54.8333,-0.5 110.167,-0.5 165.5,-0.5C 165.5,39.1667 165.5,78.8333 165.5,118.5C 157.5,159.167 133.167,183.5 92.5,191.5C 85.5,191.5 78.5,191.5 71.5,191.5C 30.4674,182.802 6.46741,157.802 -0.5,116.5C -0.5,77.5 -0.5,38.5 -0.5,-0.5 Z"/></g>
<g><path style="opacity:1" fill="#fefefe" d="M 3.5,3.5 C 56.1667,3.5 108.833,3.5 161.5,3.5C 161.667,41.8348 161.5,80.1681 161,118.5C 155.521,150.972 137.355,172.805 106.5,184C 63.1208,194.056 30.9542,179.556 10,140.5C 7.18414,133.386 5.18414,126.053 4,118.5C 3.50001,80.1681 3.33335,41.8348 3.5,3.5 Z"/></g>
<g><path style="opacity:1" fill="#040303" d="M 76.5,12.5 C 77.3764,12.3691 78.0431,12.7025 78.5,13.5C 76.218,18.2985 77.5513,21.2985 82.5,22.5C 88.5939,21.2737 89.9273,18.107 86.5,13C 90.8451,13.2685 94.0118,15.4352 96,19.5C 98.8406,26.2032 100.507,33.2032 101,40.5C 101.115,65.522 101.782,90.522 103,115.5C 104.565,128.54 109.065,140.373 116.5,151C 110.822,160.356 102.489,166.022 91.5,168C 73.8631,170.847 59.5298,165.347 48.5,151.5C 56.2472,140.763 60.7472,128.763 62,115.5C 63.2497,91.5285 63.9164,67.5285 64,43.5C 64.096,34.6817 66.096,26.3483 70,18.5C 72.0627,16.2659 74.2294,14.2659 76.5,12.5 Z"/></g>
<g><path style="opacity:1" fill="#fdfdfd" d="M -0.5,116.5 C 6.46741,157.802 30.4674,182.802 71.5,191.5C 47.5,191.5 23.5,191.5 -0.5,191.5C -0.5,166.5 -0.5,141.5 -0.5,116.5 Z"/></g>
<g><path style="opacity:1" fill="#fdfdfd" d="M 165.5,118.5 C 165.5,142.833 165.5,167.167 165.5,191.5C 141.167,191.5 116.833,191.5 92.5,191.5C 133.167,183.5 157.5,159.167 165.5,118.5 Z"/></g>
</svg>

<svg xmlns="http://www.w3.org/2000/svg" width="166" height="192" style="shape-rendering:geometricPrecision;text-rendering:geometricPrecision;image-rendering:optimizeQuality;fill-rule:evenodd;clip-rule:evenodd"><path style="opacity:1" fill="#111010" d="M-.5-.5h166v119c-8 40.667-32.333 65-73 73h-21c-41.033-8.698-65.033-33.698-72-75V-.5z"/><path style="opacity:1" fill="#fefefe" d="M3.5 3.5h158c.167 38.335 0 76.668-.5 115-5.479 32.472-23.645 54.305-54.5 65.5-43.38 10.056-75.546-4.444-96.5-43.5a102.897 102.897 0 0 1-6-22c-.5-38.332-.667-76.665-.5-115z"/><path style="opacity:1" fill="#040303" d="M76.5 12.5c.876-.13 1.543.203 2 1-2.282 4.799-.949 7.799 4 9 6.094-1.226 7.427-4.393 4-9.5 4.345.268 7.512 2.435 9.5 6.5a64.608 64.608 0 0 1 5 21c.115 25.022.782 50.022 2 75 1.565 13.04 6.065 24.873 13.5 35.5-5.678 9.356-14.011 15.022-25 17-17.637 2.847-31.97-2.653-43-16.5 7.747-10.737 12.247-22.737 13.5-36a1481.785 1481.785 0 0 0 2-72c.096-8.818 2.096-17.152 6-25a53.855 53.855 0 0 1 6.5-6z"/><path style="opacity:1" fill="#fdfdfd" d="M-.5 116.5c6.967 41.302 30.967 66.302 72 75h-72v-75zM165.5 118.5v73h-73c40.667-8 65-32.333 73-73z"/></svg>
